X:1
T:Title
%%score { ( 1 5 ) | ( 2 3 4 ) }
L:1/8
Q:1/4=100
M:4/4
K:A
V:1 treble nm="Grand Piano"
V:5 treble 
V:2 bass 
V:3 bass 
V:4 bass 
V:1
 c3 B A2 B2 | c2 d2 e2 c2 | [DFd]2 [EFc]2 [B,DFB]2 [CFA]2 | [B,EG]2 [B,^DA]2 [B,=DEB]4 | %4
w: F.~Flaxington~Harker * * *||||
 [CEc]3 [EB] [CEA]2 [CEG]2 | [CEF]3 [EG] [CEG]2 [CEF]2 | [B,EG]3 [EA] [CEA]2 [B,EG]2 | %7
w: |||
 [A,^DF]2 [B,DG]2 [G,B,E]4 | [FGd]3 [Gc] [DGB]2 [G,DE]2 | [CEc]3 [EB] [CEA]2 [A,EG]2 | z2 .^A2 z4 | %11
w: ||||
 z4 [DFB]4 | B2 GF E2 E2 | [CEc]2 AG F2 [EF]2 | [DFd]2 [EF^Ac]2 [DFB]2 [=CF=A]2 | %15
w: ||||
 [CEA]2 [EB]2 [CEA]4 |] %16
w: |
V:2
 [A,CA]3 [E,B,E] [C,A,C]2 [E,B,E]2 | [A,CA]2 [B,DB]2 [CEc]2 [A,CA]2 | [B,,B,]2 [C,^A,]2 D,2 ^D,2 | %3
 z4 G,4 | z2 z C z2 E,2 | z2 z C z2 F,2 | z2 z C z2 B,,2 | z2 B,,2 [E,,B,,]4 | z2 z E z2 E,2 | %9
 z2 z D A,,2 C,2 | C,2 F,G, [^A,CEF]2 [F,A,CE]2 | B,2 ^A,2 B,,4 | %12
 [E,G,DE]2 B,A, [E,G,D]2 [E,G,D]2 | [A,,A,]2 [C,A,]2 [D,A,D]2 [C,^A,C]2 | %14
 [B,,,B,,]2 [C,,C,]2 [D,,D,]2 [^D,,^D,]2 | [E,,E,]2 [E,G,D]2 [A,,E,A,]4 |] %16
V:3
 x8 | x8 | x8 | E,2 F,2 z2 E,2 | z2 E,2 z4 | z2 F,2 z4 | z2 B,,2 z4 | B,,,4 z4 | z2 E,2 z4 | %9
 z2 E,2 z4 | x8 | B,,4 z4 | z2 [E,D]2 z4 | x8 | x8 | x8 |] %16
V:4
 x8 | x8 | x8 | x8 | A,,4 A,,4 | ^A,,4 A,,4 | B,,,4 B,,,4 | x8 | E,,4 E,,4 | A,,4 z4 | x8 | x8 | %12
 x8 | x8 | x8 | x8 |] %16
V:5
 x8 | x8 | x8 | x8 | x8 | x8 | x8 | x8 | x8 | x8 | [^A,EF]2 [CE]-[CEB] c2 F2 | %11
 [DFd]2 [EFc]2 B,2 A,2 | x8 | z2 E2 z4 | x8 | x8 |] %16

